X:1
T:El Puerto
T:Triana No. 6, from Book 2 of the Collection for Piano: IBERIA (12 Impresiones Españolas) Isaac Albéniz
%%score { ( 1 2 5 ) | ( 3 4 6 ) }
L:1/8
Q:1/4=94
M:3/4
K:A
V:1 treble nm="Piano"
V:2 treble 
V:5 treble 
V:3 treble 
V:4 treble 
V:6 treble 
V:1
"^Allegretto con anima""^M.M.  = 94""^P62"!p! .f/ z/!<(! (!>!f/g/)!<)! | %1
!>(! .e/ z/!>)! !>!e- e/ z/"^remove redundant hairpins"!<(! (!>!e/f/)!<)!!>(! d/ z/!>)!!<(! (!>!d/e/)!<)! | %2
!>(! .c/ z/!>)! !>!c- c/ z/ !>!d/e/"^add \nstaccato" .f/ z/!<(! !>!f/g/!<)! | %3
!>(! .e/ z/!>)!!<(! (!>!e/f/)!<)!!>(! e/ z/!>)!!<(! (!>!e/f/)!<)!!>(! d/ z/!>)!!<(! (!>!d/e/)!<)! | %4
!>(! .c/ z/!>)!!<(! (!>!c/d/)!<)!!>(! c/ z/!>)!!<(! !>!c/e/!<)!!>(! .d/ z/!>)!!<(! (!>!d/e/)!<)! | %5
!>(! .c/ z/!>)!!<(! (!>!c/d/)!<)!!>(! c/ z/!>)!!<(! !>!c/e/!<)!!>(! .d/ z/!>)!!<(! (!>!d/e/)!<)! | %6
!>(! .c/ z/!>)!!p!!>(! (!>!d/e/) .=B/!>)! z/!p!!>(! (!>!d/e/) .=B/!>)! z/!p!!>(! (!>!d/"^add \nslur"e/) | %7
"^avec grâce et bien rythmé" .=B/!>)! z/!>(! .[DAB]/"_sans pédale"[I:staff +1].[CFG]/[I:staff -1] .[DAB]/[I:staff +1].[CFG]/[I:staff -1].[DAB]/[I:staff +1].[CFG]/!p![I:staff -1] .[DAB]/!>)! z/ .[DAB]/[I:staff +1].[CFG]/ | %8
[I:staff -1] .[DAB]/ z/!p!!>(! .[Bfg]/"_"[I:staff +1].[Gcd]/[I:staff -1] .[Bfg]/[I:staff +1].[Gcd]/[I:staff -1].[Bfg]/[I:staff +1].[Gcd]/!pp![I:staff -1] .[Bfg]/!>)! z/ .[Bfg]/[I:staff +1].[Gcd]/ | %9
[I:staff -1] .[Bfg]/ z/ z .[fc'd'f']/ z/ z z2 | %10
[K:bass]!mf! !tenuto![B,,F,A,] z[K:treble]!p! .[Adfa]/ z/ z .[B,^E]/ z/ z | %11
[K:bass]"_dolce"!mf!!<(! ([CF]2!<)!!>(! !>!C2!>)! !fermata!^B,) x | %12
"^P63"!mp! z!<(! ([CF]!<)! !>!C2 !fermata!^B,) x | %13
!p! z!<(! ([CF]!<)!"^add \nprecautionary\n      natural" !>!C2 !fermata!^B,)!mp![I:staff +1] .G,/[I:staff -1].[E,B,]/ | %14
[I:staff +1] .F,/[I:staff -1].[E,^B,]/[I:staff +1].G,/[I:staff -1].[E,B,]/[I:staff +1] .F,/[I:staff -1].[E,B,]/[I:staff +1].G,/[I:staff -1].[E,B,]/[I:staff +1] .F,/[I:staff -1] !fermata!z/[K:treble]!pp! .[Gfg]/ !fermata!z/ | %15
"^tied crochets\nbecome minim" (!>!C4 DE/F/!f! | %16
"^tied crochets\nbecome minim"!mf! !>!E4"_cresc." F(G/A/) | %17
"^tied crochets\nbecome minim" !>!G4"_dim." F(G/F/) | %18
"^ignore\nspurious\n   dot" !>!E4 D"_dim."(E/D/)) |!mf! (C(D/B,/ C)(B,/C/ D)!<(!(E/F/)!<)! | %20
!f! E"_cresc."(F/D/ E)(D/E/ F)G/A/ | !>!G(A/F/ G)A/G/"_dim." F(G/F/ |!mf! E)(F/D/ E)(F/E/ D)(E/D/ | %23
!p! C/)) !fermata!z/!pp! .[Bfg]/"_sans "[I:staff +1].[Fcd]/[I:staff -1] .[Bfg]/[I:staff +1].[Fcd]/[I:staff -1].[Bfg]/[I:staff +1].[Fcd]/[I:staff -1] [Bfg]/ !fermata!z/!pp! (!>!b/g/) | %24
"^bien rythmé" .d'.d'"^add\nstaccato" .[bf']/ !fermata!z/!f!!<(! ([Gg]/[Aa]/ [Bb])([cc']/[dd']/ | %25
 !arpeggio!!>!!fermata![efae'])!<)!!mf!!<(!([dd']/[cc']/!<)!!f!!>(! [Bb]/[cc']/[dd']/!mf![Bb]/)!>)!!>(! !>![c^ec']([Bb]/[Aa]/!>)! | %26
!p!!>(! (!>![GAcg])([Ff]/[Ee]/ [DFAd])([Cc]/[B,B]/ [A,B,^EA])([G,G]/[A,A]/)!>)! | %27
"^P64""^break\ntwo bar\n  slur"!>(! (!>![GAcg])([Ff]/[Ee]/ [DFAd])([Cc]/[B,B]/ [A,B,^EA])([G,G]/[A,A]/)!>)! | %28
[Q:1/4=92]!>(! (!>![GAcg])([Ff]/[Ee]/ [DFAd])([Cc]/[B,B]/ [A,B,^EA])([G,G]/[A,A]/)!>)! | %29
[Q:1/4=90] (!>![B,CFB])!p!!<(!([G,G]/[A,A]/ !>![G,CG])!<)!!p!!<(!([F,F]/[G,G]/ [F,^B,F]/))!<)! !fermata!z/"_sec"!p! .[F,B,D]/.G,/ | %30
[K:bass][Q:1/4=92] z!<(! (!tenuto![C,^E,G,C]2 !tenuto![D,F,A,D]2 !tenuto![=E,G,B,E]-!p! | %31
[E,G,B,E]/ z/ !tenuto![F,A,DF]2!<)![K:treble]!mp!!<(! !tenuto![A,CEA]2"^add tenuto""_cresc." !tenuto![B,DFB]- | %32
[B,DFB]/ z/ !tenuto![C^EGc]2 [=EGce]2!<)!!>(! !tenuto![CEGc]- | %33
 [CEGc]/ z/ !tenuto![B,DFB]2[K:bass] !tenuto![F,A,DF]2 !tenuto![D,F,A,D]-!>)! | %34
[D,F,A,D]/) z/!p!!<(! (!tenuto![C,^E,G,C]2"^remove \nincorrect ties" !tenuto![D,F,A,D]2 !tenuto![=E,G,B,E]- | %35
[E,G,B,E]/ z/ !tenuto![F,A,DF]2[K:treble] !tenuto![A,CEA]2 !tenuto![B,DFB]- | %36
 [B,DFB]/ z/ !tenuto![C^EGc]2!<)!!>(! [GB=eg]2 !tenuto![=EGce]- | %37
[EGce]/ z/ !tenuto![DFAd]2 !tenuto![A,DFA]2 !tenuto![F,A,DF]!>)! | %38
!p! [^E,G,C^E]/) !fermata!z/!<(! .[^B,^^FA]/[I:staff +1].[G,G]/[I:staff -1] .[B,FA]/[I:staff +1].[^FG]/[I:staff -1].[B,FA]/!<)!!>(![I:staff +1].[G,G]/[I:staff -1] .[B,FA]/[I:staff +1].[FG]/[I:staff -1].[B,FA]/[I:staff +1].[G,G]/!>)! | %39
[I:staff -1] ^E/ !fermata!z/!pp!!<(! .[^B,^^FA]/[I:staff +1].[G,G]/[I:staff -1] .[B,FA]/[I:staff +1].[^FG]/[I:staff -1].[B,FA]/!<)!!>(![I:staff +1].[G,G]/[I:staff -1] .[B,FA]/[I:staff +1].[FG]/[I:staff -1].[B,FA]/[I:staff +1].[G,G]/!>)! | %40
[I:staff -1] ^E/ !fermata!z/!mf!!>(! !>!E-E/!>)! z/!mf!!>(! .E .E!>)!!mf!!>(!.E | %41
 .F/!>)! z/!mf!!<(! !>!F-.F/!<)! z/!mf!!<(! .F .F!<)!!mf!!<(!.F!<)! | %42
"^P65" ^E/ z/!mf!!>(! !>!E-E/!>)! z/!mf!!>(! .E .E!>)!!mf!!>(!.E | %43
 .F/!>)! z/!mf!!>(! !>!F-.F/!>)! z/!mf!!<(! .F .F!<)!!mf!!<(!.F | ^E/!<)!!f! z/ x4 (!>!^a'/^b/) | %45
 .[g^c'g']/!f! z/ x4!ff! (!>!^a'/^b/) | %46
 .[g^c'g']/ z/!ff!!>(! (!>!^a'/^b/) .[gc'g']/!>)! z/!ff!!>(! (!>!a'/b/) .[gc'g']/!>)! z/!ff!!>(! (!>!a'/b/)!>)! | %47
 .[gc'g']/ z/[Q:1/4=88]!p! (!>!^a/^B/) .[Gcg]/ z/[Q:1/4=84]!ff! (!>!=a !fermata!c') z | %48
[K:bass][Q:1/4=92] z!mf!!>(! [A,C]/4z/4[A,C]/4 z/4!>)! .[A,C]/ z/[Q:1/4=88] z z!p! .[DE]/ z/ | %49
 z[Q:1/4=92]!mf!!>(! [A,C]/4z/4[A,C]/4 z/4!>)! .[A,C]/ z/[Q:1/4=86] z z .[DE]/ z/ || %50
[K:treble]!mp!"^bien chanté"[Q:1/4=92]!<(! (e4 e2 | %51
!>(!{/ef} e>!<)!d .e/)!>)! z/!mp!!<(! (!>!e2 d/e/ |!<(! f4 g2!<)!!<)! | %53
!>(!{/ab} a>!>(!g .g/)!>)! z/ (f2!>)!!mp!!<(! e/f/ | %54
 .g/)!<)!z/!mp!!<(!(f/e/ .f/)!<)!z/!mp!!<(!(e/d/ .e/)!<)!z/"^add tenuto"!mp!!<(!(d/c/ | %55
 .d/)!<)!z/!mp!!<(!(e/c/!<)! d2-) d/z/!<(!!<(!(e/f/)!<)! | %56
"^P66"!>(! (3((g/!<)!a/g/)f/e/)!>)!!mp!!>(! (3((f/g/f/)e/d/)!>)!!mp!!>(! (3((e/f/e/)d/c/) | %57
 d/!>)! z/!mp!!>(! !>!e/c/ d2-!>)! d/ z/ (!>!e/^B/) | %58
"^tranquillement sans presser"!mf!!<(! ([eac'e']4 [eae']2!<)! | %59
!mf!!>(! [ege']>[dd'] [ee']/) z/!>)!!mf! (!>![dee']2!<(! [dd']/"_merge hairpins"[ee']/ | %60
 [fac'f']4 [gc'g']2!<)! |{/a'b'} [ad'a']>[gg'] [gg']/) z/ (!>![fd'f']2!<(! [ed'e']/[ff']/!<)! | %62
 [gac'g']/) z/!mf!!<(! ([ff']/[ee']/ .[fac'f']/)!<)! z/!mf!!<(! ([ee']/[dd']/ .[e^^fe']/)!<)! z/!mf!!<(! ([dd']/[cc']/ | %63
 .[degd']/)!<)! z/!mf!!>(! (!>![ee']/[cc']/!>)! [degd']2-) [degd']/ z/!mf!!<(! ([ed'e']/[=f=f']/ | %64
 .[=ga=c'=g']/)!<)! z/!>(! ([=fac'=f']/[ee']/ .[fac'f']/)!>)! z/!>(! ([ee']/[dd']/ .[eac'e']/)!>)! z/!>(! ([=d=d']/[=c=c']/!>)! | %65
"^P67""_cresc." .[_Be_b]/) z/[Q:1/4=88]!<(! ([=c=c']/[dd']/ .[ebe']/)!<)! z/[Q:1/4=87]!<(! ([dd']/.[cc']/ .[d=gd']/)!<)! z/[Q:1/4=86]!>(! ([cc']/[Bb]/!>)! | %66
"^tranquillement"[Q:1/4=85]!>(! (6:4:6([Aa]/)!ppp!e/=f/d/e/=c/) (6:4:6(d/A/^c/=F/A/D/)!>)!!<(! (6:4:6(F/D/F/A/c/d/)!<)! | %67
!>(! (6:4:6([_B_b]/e/=g/d/e/=c/)!>)!!<(! (6:4:6(E/B/D/E/B/E/) (6:4:6(B/e/A/c/E/=G/)!<)! | %68
!>(! (6:4:6([Aa]/!ppp!e/=f/d/e/=c/) (6:4:6(d/A/c/=F/A/D/)!>)!!<(! (6:4:6([FA]/=C/F/A/c/d/)!<)! | %69
!>(! (6:4:6([_B_b]/=c/=g/B/g/c/)!pp! (6:4:6(B/c/=G/!>)!!<(!B/=C/G/) (6:4:6(B/G/B/[Q:1/4=87]g/c/B/)!<)! | %70
!<(! (6:4:6([Aa]/_B/=B/=c/=f/a/)!<)!!pp!!<(! (6:4:6(=F/=G/^G/A/c/f/)!<)!!pp!!<(! (6:4:6(E/F/G/!<)!!>(!A/c/F/)!>)! | %71
!pp! (6:4:6(E/=c/D/^D/E/c/) (6:4:6(e/^F/=G/=g/c/g/) (6:4:6(=c'/e/g/_B/e/G/) | %72
 (6:4:6([_A_a]/_B/=B/=c/=f/a/) (6:4:6(=F/_G/=G/A/c/f/) (6:4:6(=C/_E/=E/F/c/a/) | %73
"^allargando"[Q:1/4=85]!>(! (6:4:6([_d_d']/_a/_g/d/_e/_B/)!>)![Q:1/4=83] (6:4:6(_G/d/B/=A/B/d/)[Q:1/4=80]!<(! (6:4:6(=c/=e/c/=c'/"^rit."[Q:1/4=72]e/c/)!<)! | %74
!ppp![Q:1/4=90]"^a Tempo" (6:4:6(e/=c'/e/=f/c'/f/) (6:4:6(e/f/e/=c/e/c/) (6:4:6(e/f/e/f/c'/f/) | %75
"^P68" x2 x!p![I:staff +1] (!>!_a2 (_g/)a/ |!>(![I:staff -1] _b4)!>)! =c'2 | %77
 x2 x[I:staff +1] (_b2 _a/)b/ | %78
"_dolce sempre"[I:staff -1] =c'/ z/ (_b/_a/ b/) z/ (_a/_g/ a/) z/"_add line for melody"[I:staff +1] (_g/=f/ | %79
"^correct duration"[I:staff -1] _g/)z/_a/=f/ =g/ z/[I:staff +1] __b/[I:staff -1] z/ z!mf![I:staff +1] (^g/(=a/) | %80
"^correct duration"[I:staff -1] =b/)z/!>(!(=a/g/!>)! a/) z/"_add line for melody"[I:staff +1] (g/f/ g/)[I:staff -1] z/[I:staff +1] (f/e/ | %81
[I:staff -1] [Ad]/) z/"^giocoso"[Q:1/4=92]!<(! (!>![=ce]/[df]/ .[eg]/)!<)! z/ ([df]/[ce]/ .[df]/) z/ !>!^B/d/ | %82
!f!!<(! (!>![^c^g^c']4 [^cgc']2!<)! | %83
{/=d'e'} [dad']>[^c^c'] .[dfd']/) z/ [dad']2!<(! ([=c=c']/[dd']/ | [^eb^e']4!<)! [gc'g']2 | %85
"^P69"{/f'g'} [fc'f']>[=e=e'] .[f=c'd'f']/) z/ [faf']2"_cresc. molto"[Q:1/4=82]!<(! ([gc'-g']/[ac'a']/ | %86
!ff![Q:1/4=86]!>(! !>![ad'f'b'])!<)!([ad'-a']/[gd'-g']/!>)!!>(! !>![ad'f'a'])([gd'-g']/"^remove \nincorrect tie"[fd'f']/!>)!!>(! !>![g^bg'])([ee']/[ff']/!>)! | %87
!ff!!>(! !>![gc'g'])([ff']/[ee']/!>)!!>(! !>![faf'])([ee']/[dd']/!>)!!<(! !>![cfc'])([^B^b]/[cc']/!<)! | %88
!ff!!>(! !>![efbe'])([dd']/[cc']/!>)!!f!!>(! !>![dfbd'])([cc']/[dd']/!>)!!f!!>(! !>![cfc'])([Bb]/[Aa]/!>)! | %89
"_accel."[Q:1/4=90]!f!!>(! !>![Geg])([Fdf]/[E=ce]/!>)![Q:1/4=92]!>(! !>![DFd])([=Cc]/[=B,=B]/!>)!!>(! !>![A,CA])([G,EG]/[F,DF]/!>)! | %90
[K:bass]!f! (3([^E,^E]/)C/E,/)[I:staff +1] (3(.G,/[I:staff -1]C/E,/)!>(![I:staff +1] (3(.C/[I:staff -1]G,/E,/)!>)!!mp![Q:1/4=91] (3(z/!<(! G,/E,/) (3(z/ G,/E,/) (3(z/ G,/E,/)!<)! | %91
!>(! (3(z/ A,/F,/) (3(z/ A,/F,/) (3(z/ G,/E,/) (3(z/ G,/E,/) (3(z/ F,/D,/) (3(z/ F,/D,/)!>)! | %92
!f! (3(z/ ^E,/C,/)[I:staff +1] (3(.G,/[I:staff -1]C/E,/)[I:staff +1] (3(.C/[I:staff -1]G,/E,/)!p![Q:1/4=90]!<(! (3(z/ G,/E,/) (3(z/ G,/E,/) (3(z/ G,/E,/)!<)! | %93
!>(! (3(z/ A,/F,/) (3(z/ A,/F,/) (3(z/ G,/E,/) (3(z/ G,/E,/) (3(z/ F,/D,/) (3(z/ F,/D,/)!>)! | %94
!p! (3(z/ ^E,/C,/)[I:staff +1] (3(.G,/[I:staff -1]C/E,/)[I:staff +1] (3(.C/[I:staff -1]G,/E,/)[Q:1/4=89] (3(z/!p! B,/=G,/) (3(z/ C/A,/) (3(z/ B,/G,/) | %95
"^P70"!p!!>(! (3(z/ ^E,/C,/)[I:staff +1] (3(.^G,/[I:staff -1]C/E,/)[I:staff +1] (3(.C/[I:staff -1]^G,/E,/) (3(z/ B,/=G,/) (3(z/ C/A,/) (3(z/ B,/G,/)!>)! | %96
!p!!>(! (3(z/ ^E,/C,/)[I:staff +1] (3(.^G,/[I:staff -1]C/E,/)[I:staff +1] (3(.C/[I:staff -1]^G,/E,/)[Q:1/4=88] (3(z/ =C/=G,/)[Q:1/4=87] (3(z/"_rit." =E/C/) (3(z/ C/G,/)!>)! | %97
[Q:1/4=85]!pp!"_rit." (3(z/ ^D/B,/) (3(z/ =G,/B,/) (3(z/ ^A,/F,/)[Q:1/4=84] (3(z/ ^G,/E,/) (3(z/[Q:1/4=80]!>(! E,/=C,/) (3(z/[Q:1/4=74] F,/=D,/)!>)! | %98
"^meno mosso"[Q:1/4=60]!p!!>(! (3(z/ ^E,/C,/)[Q:1/4=50][I:staff +1] (3(G,/[I:staff -1]C/!tenuto!.!fermata!E,/)!>)!!ppp! !>!!fermata![F,D=E]4 | %99
[Q:1/4=56]!p!!>(! (3(z/ ^E,/C,/)[Q:1/4=46][I:staff +1] (3(G,/[I:staff -1]C/!tenuto!.!fermata!E,/)!>)!!ppp! !>!!fermata![=G,=EF=G]4 | %100
[Q:1/4=88]!pp!"^a Tempo""^leggiero é dolce"!<(! (3(z/ ^E,/C,/)[I:staff +1] (3(^^F,/[I:staff -1]=E,/G,/)[I:staff +1] (3(C/[I:staff -1]^E/^B,/)[K:treble][I:staff +1] (3(^^F/[I:staff -1]=E/G/)[I:staff +1] (3(c/[I:staff -1]^e/^B/)"_sempre leggiero"[I:staff +1] (3(^^f/[I:staff -1]=e/g/) | %101
[I:staff +1] (3(^c'/[I:staff -1]^e'/^b/)[I:staff +1] (3(^^f/[I:staff -1]=e/!>(!g/)!<)!!f![I:staff +1] (3(c'/[Q:1/4=86][I:staff -1]e'/b/)[I:staff +1] (3(f/[I:staff -1]=e/g/)[I:staff +1] (3(c'/[Q:1/4=80][I:staff -1]e'/b/)[I:staff +1] (3(f/[Q:1/4=60][I:staff -1]=e/!mp!!tenuto!.!fermata!g/)!>)! | %102
!f![Q:1/4=90] !arpeggio!!tenuto![gc'g']/ z/!mf!!>(! !>!^e-e/!>)! z/!mf!!>(! .e .e!>)!!mf!!>(!.e | %103
 f/!>)! z/!mf!!<(! f-.f/!<)! z/!mf!!<(! .f .f!<)!!mf!!<(!.f | %104
 .^e/!<)! z/!mf!!>(! !>!e-.e/!>)! z/!mf!!>(! .e .e!>)!!mf!!>(!.e | %105
"^add slur\n& staccato" .f/!>)! z/!mf!!<(! !>!f-"_add \nstaccato".f/!<)! z/!mf!!<(! .f .f!<)!!mf!!<(!.f | %106
"^add \nstaccato" .^e/!<)!!f! z/[Q:1/4=92]!<(![I:staff +1] (3([=C=DF]/[I:staff -1]E/A/)[I:staff +1] (3([F=cd]/[I:staff -1]A/=e/)[I:staff +1] (3([cdf]/[I:staff -1]e/a/)!<)! z[Q:1/4=90] (!>!^a'/^b/) | %107
"^P71" .[gc'g']/!f! z/[Q:1/4=94] x3!ff! z!>(! (!>!^a'/^b/) | %108
[Q:1/4=88] .[gc'g']/!>)! z/!>(! (!>!^a'/^b/) .[gc'g']/!>)! z/!>(! !>!a'/b/ .[gc'g']/!>)! z/!>(! !>!a'/b/ | %109
 .[gc'g']/!>)! z/[Q:1/4=80]!p!!>(! (!>!^a/^B/) .[Gcg]/!>)! z/!f!!>(! (!>!=c'/f/) .[B^e]/!>)! z/[Q:1/4=70]!f! .=A/ z/ | %110
!ff!"^dolce  e  cantando"[Q:1/4=88]!<(! ([cf^ac']4!ff! [cfc']2!<)! | %111
!>(! [c^ec']>.[Bb] .[cec']/)!>)! z/ !>!c'2!<(! ([Bab]/[cc']/!<)! | %112
!<(! ([^df^a^d']4) [^eac'^e']2!<)! | %113
!>(! [fbc'f']>[^e^e'] .[ebc'e']/)!>)! z/ !>!^d'2!<(! ([cbc']/[^dd']/!<)! | %114
 .[^e^ac'^e']/) z/!mf!!>(! (!>![^d^d']/[cc']/ .[dfd']/)!>)! z/!>(! (!>![^^Gc^^g]/[^Ac^a]/ .[cac']/)!>)! z/!<(! (!>![Bb]/[Aa]/ | %115
 .[Bcb]/)!<)! z/ (!>![cc']/[^A^a]/ .[Bcb]/) z/!>(! (!>![B=ab]/^c/ .[^E=AB]/)!>)! z/!<(! (!>![cbc']/[^d^d']/ | %116
 .[^e^ac'^e']/)!<)! z/!>(! (!>![^d^d']/[cc']/ .[dfd']/)!>)! z/!>(! (!>![^^Gc^^g]/[^Ac^a]/ .[cac']/)!>)! z/!<(! (!>![Bb]/[Aa]/!<)! | %117
"^P72" .[Bcb]/) z/ (!>![cc']/[^A^a]/ .[Bcb]/) z/!f! (!>![B=db]/^g/ .[=D^EB]/) z/ (!>![dbd']/[^eb^e']/ | %118
!ff! .[fc'f']/) z/ (!>![gg']/[=e=e']/ (6:4:7(.[fc'f']/4)[Q:1/4=98] z/4!f![I:staff +1] .[Bf=g]/[I:staff -1].[dab]/[I:staff +1].[Bfg]/[I:staff -1].[dab]/)[I:staff +1].[Bfg]/ (3(b/[I:staff -1][fb]/g/)!ff![Q:1/4=88]!<(! (!>![dbd']/[^e^e']/!<)! | %119
!ff! .[fc'f']/) z/ (!>![gg']/[=e=e']/ (6:4:7(.[fc'f']/4)[Q:1/4=104] z/4!f![I:staff +1] .[Bf=g]/[I:staff -1].[dab]/[I:staff +1].[Bfg]/[I:staff -1].[dab]/)[I:staff +1].[Bfg]/ (3(d'/[I:staff -1][fb]/g/)[Q:1/4=88]!<(! (!>![^^fb^^f']/[^g^g']/ | %120
!ff!!>(! .[bd'f'b']/)!<)! z/!>)!!mf!!>(! (!>![ad'-f'a']/[fd'f']/[Q:1/4=86] .[gd'g']/) z/ (!>![fa-d'f']/[dad']/[Q:1/4=84] e'/) z/[Q:1/4=82] (3(!>!d'/x/a/!>)! | %121
"_dim."!mp! .[=Bdf=b]/) z/[Q:1/4=80]!mf!!>(! (!>![Ad-fa]/[Fdf]/!mp! .[=GA=cd=g]/)!>)! z/[Q:1/4=72]!mp!!>(! (!>![Ff]/[Dd]/!>)!!p!!<(! .[Fce]/) z/!<)![Q:1/4=60]!mp!"^rit."!>(! (3(d/x/[Q:1/4=45]!p!!breath!A/)!>)! | %122
"^a Tempo. poco pieno"!pp![Q:1/4=86] (3(z/ [A,=EF]/C/) (3(z/ C/A,/) (3(z/ [^B,F]/C/) (3(z/ [^EA]/F/) (3(z/ [^^Fc]/G/) (3(z/ [EA]/^F/) | %123
 (3(z/ [DG]/F/) (3(z/ [=EG]/^E/) (3(z/ [A,EG]/F/)[Q:1/4=84]!<(! (3(z/ [EA]/F/) (3(z/!<)!!>(! [^^Fc]/G/) (3(z/ [EA]/^F/)!>)! | %124
 (3(z/ [A^B]/c/) (3(z/ [Gd]/!>(!c/)"_rit."[Q:1/4=80] (3(z/ [GB]/A/) (3(z/ [^EA]/F/)[Q:1/4=76] (3(z/ [^^Fc]/G/) (3(z/ [EA]/^F/)!>)! | %125
"^P73""^correct \nduration\nof rest"!pp![Q:1/4=72] (3(z/ [DF]/=G/) (3(z/ [^^F,C]/D/) (3(z/"_rit." [DF]/!<(!G/)[Q:1/4=68] (3(z/ [^A,D]/B,/)[Q:1/4=62] (3(z/!<)!!>(! [^^F,^E]/^G,/)[Q:1/4=50] (3(z/ [^B,D]/!pp!C/)!>)! | %126
[K:bass][Q:1/4=94]"^94""^a Tempo Io"!pp! !arpeggio!!>![F,CF]/ z/ z z .D/ z/ .G,/"_rit." z/ .B,/ z/ | %127
[Q:1/4=89]"^89"!p!!<(! A,/ z/!<)!!>(! !>!B,/ z/!>)!!>(! .A,/ z/ .D/ z/ .^G,/ z/ .B,/!>)! z/ | %128
[Q:1/4=84]"^84"!pp!!<(! A,/ z/!<)!!>(! .B,/ z/!>)!!>(! .A,/ z/ .D/ z/ .^G,/ z/ .B,/ z/!>)! | %129
!ppp! .A,/[Q:1/4=79]"^79" z/"_rit. molto" .B,/ z/ .A,/ z/[Q:1/4=74]"^74" .B,/ z/ .A,/ z/[Q:1/4=49]"^49" .B,/ !fermata!z/ | %130
[K:treble]"^a Tempo Io   e giocosamente""_add \nlower\nvoice"[Q:1/4=94]"^94"!pp! .^A/ z/!>(! !>!A-A/!>)! z/!pp!!>(! .A .A!>)!!pp!!>(!.A | %131
 .B/!>)! z/"^add \nhairpin"!pp!!<(! !>!B-B/!<)! z/!pp!!<(! .B"^change accent\nto staccato?" !>!B!<)!!pp!!<(!.B | %132
 .^A/!<)! z/"^add \nhairpin"!pp!!>(! !>!A-A/!>)! z/!pp!!>(! .A/ z/ .A!>)!!pp!!>(!.A!>)! | %133
 .B/ z/!pp!!<(! B-B/!<)! z/"^add \nhairpin"!pp!!<(! .B .B!<)!!pp!!<(!.B | %134
"^très rythmé" .^A/!<)! z/!mp!!>(! !>![=GBd]/"_sans et avec gaminerie"[I:staff +1].[^E=Ac]/[I:staff -1] .[GBd]/[I:staff +1].[EAc]/[I:staff -1].[GBd]/[I:staff +1].[EAc]/[I:staff -1] .[GBd]/!>)!!p! z/"_gentiment" .[Gd^e]/ z/ | %135
 .[^Ac]/ z/!mp![Q:1/4=92]"^92"!>(! !>![=GBd]/[I:staff +1][^E=Ac]/[I:staff -1] [GBd]/[I:staff +1][EAc]/[I:staff -1][GBd]/[I:staff +1][EAc]/[I:staff -1] [GBd]/!>)!!p! z/"^add \nstaccato" .[Gd^e]/ z/ | %136
 .[^Ac]/ z/!mp![Q:1/4=90]"^90"!>(! !>![=GBd]/[I:staff +1].[^E=Ac]/[I:staff -1] .[GBd]/[I:staff +1].[EAc]/[I:staff -1].[GBd]/"_dim."[I:staff +1].[EAc]/[I:staff -1] .[GBd]/[I:staff +1].[EAc]/[I:staff -1].[GBd]/[I:staff +1].[EAc]/!>)! | %137
[I:staff -1] .[=GBd]/!p! z/[Q:1/4=84]"^84""_rit."!>(! .[GBd]/[I:staff +1].[^E=Ac]/[I:staff -1] .[GBd]/ z/[Q:1/4=74]"^74" .[GBd]/[I:staff +1].[E=Ac]/[I:staff -1] .[GBd]/z/[Q:1/4=54]"^54"[I:staff +1].[E=Ac]/[I:staff -1] z/!>)! | %138
!pp!"^a TO. con anima" .[=GBd]/ z/ z[Q:1/4=94]"^94" z!fff! ([G=g]/[Aa]/ [Bb])([cc']/[dd']/ | %139
 !>![e=ge']) .[dd']/.[cc']/ .[Bb]/.[cc']/.[dd']/.[Bb]/ [cc']/ z/!ffff!!8va(! .[c'^e'b'c''] | %140
 .[f'a'c''f'']/!8va)! z/ z z2 z2 |] %141
V:2
 .c/ z/ c | .B/ z/ B- B/ z/ (B .A/) z/ (A | .^E/) z/ E- E/ z/ (B .c/) z/ (c | %3
 .B/) z/ B- B/ z/ (B A/) z/ A | .^E/ z/ E- E/ z/ (E .A/) z/ A | .^E/ z/ E- E/ z/ (E .A/) z/ (A | %6
 .^E/) z/ (A E/) z/ (A .E/) z/ (A | .^E/) z/ x5 | x6 | x6 |[K:bass] x3/2[K:treble] x9/2 | %11
[K:bass] G,(A,/G,/ B,)A,/G,/ F, G,/"_sec".[E,^B,]/ | %12
 z A,/G,/ =B,!>(!A,/G,/!>)! F, G,/"_sec".[E,^B,]/ | z A,/G,/ =B,!>(!A,/G,/!>)! F, x | %14
 x5[K:treble] x | =B,4 A,2 | =B,4 C2 | D4 C2 | B,4 A,2 | B,4 A,2 | B,4 C2 | D4 C2 | B,4 A,2 | %23
 B,/ z/ x x x z d/ z/ | f/[I:staff +1].g/.e/.f/ x4 | x6 | x6 | x6 | x6 | x6 | %30
[I:staff -1][K:bass] x6 | x3[K:treble] x3 | x6 | x5/2[K:bass] x7/2 | x6 | x3[K:treble] x3 | x6 | %37
 x6 | x6 | x6 | z (=D/C/ .^B,/) z/ (C/=C/ .=B,/) z/ (C/B,/ | %41
 .^A,/) z/ .^^G,/.A,/ .B,/ z/ .A,/.B,/ .=C/ z/ .B,/.C/ | %42
 ^E/ z/ (=D/C/ .^B,/) z/ (C/=C/ .=B,/) z/ (C/B,/ | %43
 .^A,/) z/ .^^G,/.A,/ .B,/ z/ .A,/.B,/ .=C/ z/ .B,/.C/ | ^E/ z/ x4 (g/^b/) | x5 (g/^b/) | %46
 x (g/^b/) x (g/b/) x (g/b/) | x (G/^B/) x g/f/ x z | %48
[K:bass] z F,/4E,/4F,/4E,/4 .F,/ z/ z z [E,G,]/ z/ | z F,/4E,/4F,/4E,/4 .F,/ z/ z z [E,G,]/ z/ || %50
[K:treble] z"_pp" !tenuto![Ac] z !tenuto![Ac] z !tenuto![Ac] | %51
 z !tenuto!G z !tenuto!G!<(! z !tenuto!G!<)! | %52
 z"_sempre pp" !tenuto![Ac] z !tenuto![Ac] z !tenuto![Ac] | z !tenuto!d z !tenuto!G z !tenuto!G | %54
 z !tenuto![Ac] z !tenuto![Ac] z !tenuto![^^F^A] | z !tenuto!G z [DG]/ z/ z !tenuto![Gd] | %56
 z !tenuto![Ac] z !tenuto![Ac] z !tenuto![^^F^A] | z !tenuto!G z .[DG] z G | %58
 z"^cantando" .[CE]/ z/ .[EA]/ z/ .[A,C]/ z/ z .[CF]/ z/ | z .[EG]/ z/ z2 !tenuto![G,DFG] z | %60
 z .[CE]/ z/ .[Ac]/ z/ .[EA]/ z/ z .[EA]/ z/ | z .[G,E]/ z/ z2 !tenuto![G,DFG] z | x6 | %63
 z2 z .[DG]/ z/ .[G,DF]/ z/ z | x6 | x6 | x6 | x6 | x6 | x6 | x6 | x6 | x6 | x6 | x6 | %75
[I:staff +1] (6:4:6(_E/=G/_A/[I:staff -1]_B/=c/d/) (6:4:6(=f/d/f/_e/=c/A/)!<(! (6:4:6(_G/A/c/=e/c/e/)!<)! | %76
 (6:4:6(e/=f/e/=c/e/c/)!<(! (6:4:6(e/c/e/f/e/f/) (6:4:6(e/f/e/_g/e/f/)!<)! | %77
[I:staff +1] (6:4:6(_E/=G/_A/[I:staff -1]_B/=c/d/) (6:4:6(_a/_g/a/g/_e/c/)!<(! (6:4:6(_G/c/e/=e/=c'/e/)!<)! | %78
 (6:4:6(=c'/e/=f/_b/e/f/) (6:4:6(b/e/f/_a/_A/_d/) (6:4:6(a/_B/_c/=d/=B/d/) | %79
 x2[I:staff +1] ._e/[I:staff -1] x/ x x2 | x6 | a/ z/ x4 (F | %82
 z) .[^C^G]/ z/[I:staff +1] ._d/[I:staff -1]z/[I:staff +1].=c/[I:staff -1] z/ z .[B^c]/ z/ | %83
 z"_add staccato" .[=CF]/ z/ z2 .[=cd]/ z/ x | %84
 z .[B^c]/ z/[I:staff +1] c/[I:staff -1]z/[I:staff +1]g/[I:staff -1] z/ z .[c^e]/ z/ | %85
 z .[FGA]/ z/ z2 .[Ac]/!f! z/ z | x6 | x6 | x6 | x6 |[K:bass] x6 | x6 | x6 | x6 | x6 | x6 | x6 | %97
 x6 | x6 | x6 | x3[K:treble] x3 | x6 | x (=d/c/ .^B/) z/ (c/=c/ .=B/) z/ (c/B/ | %103
 .^A/) z/ .^^G/.A/ B/ z/ .A/.B/ .=c/ z/ .B/.c/ | .^e/ z/ (=d/c/ .^B/) z/ (c/=c/ .=B/) z/ (c/B/ | %105
 .^A/) z/ .^^G/.A/ .B/ z/ A/.B/ .=c/ z/ .B/.c/ | .^e/ z/ x4 (g/^b/) | x5 (g/^b/) | %108
 x (g/^b/) x (g/b/) x (g/b/) | x (G/^B/) x ([=c=b]/f/) x !>!^B,/!>!C/ | %110
 z!p! .[^A,C]/ z/ .[^Ac]/ z/ .[FA]/ z/ z .[A,F]/ z/ | z .[B,^E]/ z/ z (=a/=e/ .[EB]/) z/ x | %112
 z .[^A,C]/ z/ .[^Ac]/ z/ .[FA]/ z/ z .[CF]/ z/ | z .[B,^E]/ z/ z b/^e/ .[^EB]/ z/ x | x6 | x6 | %116
 x6 | x6 | x6 | x6 | x4 (3([ea]/a/e/)(3(B/f/A/) | x4 (3(E/F/E/)(3(D/F/A/) | x6 | x6 | x6 | x6 | %126
[K:bass] x6 | x6 | x6 | .F,/ z/ .[E,G,]/ z/ .F,/ z/ .[E,G,]/ z/ .F,/ z/ .[E,G,]/ z/ | %130
[K:treble] ^A/ z/ .=G/.F/ .^E/ z/ .F/.=F/ .=E/ z/ .=F/.E/ | %131
 .^D/ z/ .^^C/.D/ .E/ z/ .D/.E/ .=F/ z/ .E/.F/ | ^A/ z/ .=G/.F/ .^E/ z/ .F/.=F/ .=E/ z/ .=F/.E/ | %133
 .^D/ z/ .^^C/.D/ .E/ z/ .D/.E/ .=F/ z/ .E/.F/ | ^A/ z/ x5 | x6 | x6 | x6 | x6 | x5!8va(! x | %140
 x/!8va)! x11/2 |] %141
V:3
"_2 ""_main gauche dessus" .[FA]/ z/ !>![FA] | %1
"_" .[FG]/!ped! z/"^gracieux      et      tendre" !>![FG]- [FG]/!ped-up! z/ !>![FG]"_" .[F^B]/ z/ !>![FB] | %2
"_" .[F=B]/!ped! z/ !>![FB]- [FB]/!ped-up! z/ !>![FG]"_" .[FA]/ z/ [FA] | %3
"_" .[FG]/!ped! z/ !>![FG]- [FG]/!ped-up! z/ [FG]"_" [F^B]/ z/ [FB] | %4
"_" .[F=B]/!ped! z/ !>![FB]- [FB]/!ped-up! z/ [FB]"_" .[F^B]/ z/ !>![FB] | %5
"_" .[F=B]/!ped! z/ !>![FB]- [FB]/!ped-up! z/ !>![FB]"_" .[F^B]/ z/ !>![FB] | %6
"_" .[F=B]/ z/"_" (!>![F^B] .[Fc]/) z/"_" (!>![FB] .[Fc]/) z/"_" (!>![FB] | %7
 .[Fc]/) z/ x x2 z x | z x x2 z x | %9
 z2!pp! .[Bg]/ z/[K:bass]"_"!f!"^posé"!<(! (G,/A,/ B,)(C/D/!<)! | %10
"_"!<(!!ped! !>!E)(D/C/!<)!!ped-up!!f!!>(! B,/C/D/B,/!>)!"_"!>(! !>!C)[I:staff -1](B,/A,/)!>)! | %11
!ped![I:staff +1] C,!<(! C,2 C,!ped-up!!<)!"_" D, z | %12
"_"!ped! .C,/ z/!<(! (!>!C,2 C,!<)!"_" D,)!ped-up! z | %13
"_"!ped! .C,/ z/!<(! (!>!C,2 C,!<)!"_" D,)!ped-up! x | %14
!<(! x2!<)!!>(! x2 z!>)![K:treble] .[D^B]/ z/ | %15
[K:bass]"_"!<(! .C,/ z/ (C,/^B,,/ .C,/) z/ !>!C,"_" C,C,!<)! | %16
"_"!<(! .C,/ z/ (C,/^B,,/ .C,/) z/ !>!C,"_" .C,.C,!<)! | %17
"_"!>(! .C,/ z/ (C,/^B,,/ .C,/) z/ !>!C,"_" .C,.C,!>)! | %18
"_"!>(! .C,/ z/ (C,/^B,,/ .C,/) z/ !>!C,"_" .C,.C,!>)! | %19
"_"!<(! .C,/ z/"_add\nslur" (C,/^B,,/ .C,/) z/ !>!C,"_" .C,.C,!<)! | %20
"_"!<(! .C,/ z/ (C,/^B,,/ .C,/) z/ !>!C,"_" .C,.C,!<)! | %21
"_"!>(! .C,/ z/ (C,/^B,,/ .C,/) z/ !>!C,"_" .C,.C,!>)! | %22
"_"!>(! .C,/ z/ (C,/^B,,/ .C,/) z/ !>!C,"_" .C,.C,!>)! | C,/ z/[K:treble] x3 z .[cf]/ z/ | %24
!<(! [Bd]/ z/!<)!!>(! z .[gd']/!>)! z/[K:bass]"_" (G,/A,/ B,)(C/D/ | %25
"_" !arpeggio![B,,F,A,E])(D/C/ B,/C/D/B,/)"_" [C,B,^E][K:treble].c | %26
[K:bass]"_" z!>(! (!>!C/4D/4C/4D/4)!pp! .C/!>)! z/ !>!C"_" z"^(dessous)" !>!D | %27
"_"!mp! z!>(! (!>!C/4D/4C/4D/4)!pp! .C/!>)! z/ !>!C"_"!mp! z !>!D | %28
"_"!mp! z!>(! (!>!C/4D/4C/4D/4)!pp! C/!>)! z/ !>!C"_"!mp! z !>!D | %29
"_"!mp! !>!C,.C,/ z/"_" !>!A,,.A,,/ z/"_" .G,,/ z/ z | %30
"_"!mp!!ped! z!p!!>(! (G,,/4A,,/4G,,/4A,,/4)!pp! .G,,/!ped-up!!>)! z/"_"!ped! G,,!mp! (!>!G,,,G,,)!ped-up! | %31
"_"!mp!!ped! z!p!!>(! (G,,/4A,,/4G,,/4A,,/4)!pp! .G,,/!ped-up!!>)! z/"_"!ped! G,,!mp!!mp! (!>!G,,,G,,)!ped-up! | %32
"_"!mp!!ped! z!p!!>(! (G,,/4A,,/4G,,/4A,,/4)!pp! .G,,/!>)! z/!ped-up!"_"!ped! G,,!mp!!mp! (!>!G,,,G,,)!ped-up! | %33
"_"!mp!!ped! z!p!!>(! (G,,/4A,,/4G,,/4A,,/4)!pp! .G,,/!>)! z/!ped-up!"_"!ped! G,,!mp!!mp! (!>!G,,,G,,)!ped-up! | %34
"_"!mp!!ped! z!p!!>(! (G,,/4A,,/4G,,/4A,,/4)!pp! .G,,/!>)! z/!ped-up!"_"!ped! G,,!mp!!mp! (!>!G,,,G,,)!ped-up! | %35
"_"!mp!!ped! z!p!!>(! (G,,/4A,,/4G,,/4A,,/4)!pp! .G,,/!>)! z/!ped-up!"_"!ped! G,,!mp!!mp! (!>!G,,,G,,)!ped-up! | %36
"_"!mp!!ped! z!p!!>(! (G,,/4A,,/4G,,/4A,,/4)!pp! .G,,/!>)! z/!ped-up!"_"!ped! G,,!mp!!mp! (!>!G,,,G,,)!ped-up! | %37
"_"!mp!!ped! z!p!!>(! (G,,/4A,,/4G,,/4A,,/4)!pp! .G,,/!>)! z/!ped-up!"_"!ped! G,,!mp!!mp! (!>!G,,,G,,)!ped-up! | %38
"_" G,,/ z/[K:treble] x x4 | [CG]/ z/ x x4 | %40
 [CG]/ z/"_senza" !>![G,G]-[G,G]/ z/ .[G,G]/ z/ .[CG].[G,G] | %41
 .[^DG]/ z/ !>![G,G]-[G,G]/ z/ .[G,G]/ z/ .[DG].[G,G] | %42
 [CG]/ z/ !>![G,G]-[G,G]/ z/ .[G,G]/ z/ .[CG].[G,G] | %43
 [^DG]/ z/ !>![G,G]-[G,G]/ z/ .[G,G]/ z/ .[DG].[G,G] | %44
 [CG]/ z/"_"!<(!!ped! (3(!>![=C=DF]/[I:staff -1]=E/A/)[I:staff +1] (3([F=c=d]/[I:staff -1]A/e/)[I:staff +1] (3([cdf]/[I:staff -1]e/a/)[I:staff +1] .[f=c'=d']/!<)! z/"_" (!>!f/^d/)!ped-up! | %45
"_" .[^c^e]/ z/"_"!<(!!ped! (3(!>![=C=DF]/[I:staff -1]=E/A/)[I:staff +1] (3([F=c=d]/[I:staff -1]A/=e/)[I:staff +1] (3([cdf]/[I:staff -1]e/a/)[I:staff +1] [f=c'=d']/!ped-up!!<)! z/"_" (!>!f/^d/) | %46
 .[^c^e]/ z/"_" (!>!f/^d/) .[ce]/ z/"_" (!>!f/d/) .[ce]/ z/"_" (!>!f/d/) | %47
"_" .[c^e]/ z/"_" (!>!F/^D/) .[C^E]/ z/"_"!ped! (=e/=d/ G)!ped-up! z | %48
[K:bass]"_"!mf! (!tenuto!A,,3"_"!<(! (E,,"_senza " .B,,/))!<)! z/ z | %49
!mf!"_" A,,3"_" (E,,"_senza " .B,,/) z/ z || %50
[K:treble]"_""^très doux et nonchalant"!mp!"_dolce"!ped! z!p! (E/4F/4E/4F/4 E/) z/!ped-up! .E"_"!ped! (E,!ped-up!E) | %51
"_"!mp!!ped! z!p! (E/4F/4E/4F/4 E/) z/!ped-up! .d"_"!ped! (E,E)!ped-up! | %52
"_"!mp!!ped! z!p! (E/4F/4E/4F/4 E/) z/!ped-up! E"_"!ped! (E,E)!ped-up! | %53
"_"!mp!!ped! z!p! (E/4F/4E/4F/4 E/) z/!ped-up! .d"_"!ped! E,d!ped-up! | %54
"_"!mp!!ped! z!p! (E/4F/4E/4F/4 E/) z/!ped-up! .E"_"!ped! E,.e!ped-up! | %55
"_"!mp!!ped! z!p! (E/4F/4E/4F/4 E/) z/!ped-up! (!>!F/E/"_"!ped! E,).E!ped-up! | %56
"_"!mp!!ped! z!p! (E/4F/4E/4F/4 E/) z/!ped-up! .E"_"!ped! E,e!ped-up! | %57
"_"!mp!!ped! z!p! (E/4F/4E/4F/4 E/) z/!ped-up! !>!F/E/"_"!ped! E,!>![Ed]!ped-up! | %58
[K:bass]!mp!"_""^doux et sonore"!ped! (6:4:6(A,,/E,/A,/B,/C/E/) .F/ z/ .E,/ z/!ped-up![K:treble]"_"!ped! .c/z/"_M.G. dessous".E/ z/!ped-up! | %59
[K:bass]"_"!ped! (6:4:6(A,,/E,/B,/D/E/F/) G/ z/[K:treble] !>!g/ z/!ped-up![K:bass]"_"!ped! !tenuto!A,,[K:treble] [eg]/ z/!ped-up! | %60
[K:bass]"_"!ped!!<(! (6:4:6(A,,/E,/A,/B,/C/E/)!<)!"_"!ped-up!!ped!!>(! (6:4:6(G/F/G/F/E/C/)!>)!"_"!ped-up!!ped! (6:4:6(E,/C/E/[K:treble]B/c/e/)!ped-up! | %61
[K:bass]"_"!ped! (6:4:6(B,,/E,/B,/[K:treble]D/E/B/) .[de]/ z/"_"!ped-up!!ped! !>!g/ z/[K:bass]"_"!ped-up!!ped! !tenuto!E,,[K:treble] [g^b]!ped-up! | %62
[K:bass]"_"!mp!!ped!!<(! (6:4:6(A,,/E,/A,/^B,/C/E/)!<)![K:treble]"_"!mp!!ped-up!!ped!!<(! (6:4:6(^B,/C/E/A/c/e/)!<)![K:bass]!mp!!<(! (6:4:6([E,^A,]/^B,/C/[K:treble]^^F/^A/e/)!ped-up!!<)! | %63
[K:bass]"_"!ped! (6:4:6(B,,/E,/B,/[K:treble]D/E/G/) .f/ z/ .F/ z/[K:bass]"_"!ped-up!!ped! .E,,/ z/[K:treble]"^cresc." .g/ z/!ped-up! | %64
[K:bass]"_"!mp!!<(!!ped! (6:4:6(A,,/E,/^G,/A,/B,/=C/)!<)!"_"!mp!!<(!!ped-up!!ped! (6:4:6(G,/A,/C/E/G/A/)!<)![K:treble]"_"!mp!!<(!!ped-up!!ped! (6:4:6(^D/E/G/A/=c/e/)!ped-up!!<)! | %65
[K:bass]"_"!mp!!<(!!ped! (6:4:6(=G,,/=C,/=G,/_B,/=C/B,/)[K:treble] (6:4:6(=G/!<)!!>(!=C/G/_B/G/B/) (6:4:6(e/B/e/B/G/C/)!ped-up!!>)! | %66
[K:bass]"_""^bien en dehors"!ped! (!>!=C4"_"!ped-up!!ped!!<(! !>!C2!ped-up!!<)! | %67
"_"!ped!!>(! =C>_B, C/)!>)! z/ (!>!C2!ped!!<(! B,/C/!ped-up!!<)! | %68
"_"!<(!!ped! !>!D4!<)!!ped-up!"_"!<(!!ped! E2!<)!!ped-up! | %69
"_"!ped! =F>E E/) z/ (!>!D2!ped-up!!ped! =C/D/!ped-up! | %70
"_"!ped! E/) z/ (D/=C/!ped-up!"_"!ped! .D/) z/ (C/_B,/!ped-up!"_"!ped! .C/) z/ (B,/A,/!ped-up! | %71
"_"!ped! _B,/) z/ (=C/A,/!ped-up!"_"!ped! (B,3)[K:treble]!ped-up![K:bass]"_"!ped! C/_D/!ped-up! | %72
"_"!ped! _E/) z/ (_D/=C/!ped-up!"_"!ped! D/) z/ (C/_A,/!ped-up!"_"!ped! (_B,)A,/=F,/)!ped-up! | %73
"_"!ped!!>(! !>!_B,(=C/_D/ _E)[K:treble](=F/_G/!ped-up!"_"!ped! _B)G/B/!>)!!ped-up! | %74
"_"!p!!ped! z (!>!_a3 !>!a2!ped-up! | %75
"_"!ped![I:staff -1]{/_a_b} a>[I:staff +1](_g) ._a/) x/ x!ped-up!"_"!p!!ped! x2!ped-up! | %76
"_"!ped! z ._A/ z/ ._a/ z/ ._a'/ z/!ped-up!"_"!ped! z .a/ z/!ped-up! | %77
"_"!ped![I:staff -1]{/_d'_e'} d'>[I:staff +1]=c' c'/ x/ x!ped-up!"_"!ped! x2!ped-up! | %78
"_"!ped! z A/ z/ ._d'/ z/ =f'/ z/!ped-up!"_"!ped! z[I:staff -1] .a/[I:staff +1] z/!ped-up! | %79
"_"!mp!!ped! (6:4:6(_E/=G/_A/B/=c/d/)!<(![I:staff -1] (6:4:6(=g/d/e/[g=c']/=f/g/)!ped-up!!<)!"_"!>(!!ped! (6:4:6((!>!_g'/[c'_d']/__b/)(!>![gb]/e/^c/))!>)!!ped-up! | %80
"_"!ped![I:staff +1] (6:4:6(^C/^^F/^G/^B/c/=e/)[I:staff -1] (6:4:6(a/=B/c/!ped-up!"_""^correct rest\n duration"!>(!!ped!e/c/G/) (6:4:6([Ec]/!>)!^F/^^F/!ped-up!"_"!mf!!>(!!ped!G/c/g/)!>)!!ped-up! | %81
"_"!<(!!ped![I:staff +1] (6:4:19((F,/=C/^C/)(4:3:4(D/F/G/A/))!<)!!f!!>(! (1:1:6(=c/_B/c/B/_A/_G/) (1:1:6(A/G/A/__B/A/_G/)!ped-up!!>)! | %82
"_"!<(!!ped! (6:4:6(=F,/=C/_D/E/=F/_A/)!<)!!ped-up!"_"!>(!!ped![I:staff -1] (6:4:6(=f/_a/_d/f/A/d/)!>)!!<(![I:staff +1] (6:4:6([^E=B]/^F/^^F/G/B/^e/)!ped-up!!<)! | %83
"_"!ped!!<(! (6:4:6(^F,/^B,/C/D/F/A/)!ped-up!!<)!"_"!ped! (6:4:6(=c/A/c/f/c/f/)!ped-up!"_"!ped!!>(! (6:4:6(a/f/c/f/^c/=c/)!ped-up!!>)! | %84
"_"!ped!!<(! (6:4:6(G,/^B,/^C/^^F/G/d/)!ped-up!!<)!"_"!ped!!>(![I:staff -1] (6:4:6(b/=f/=d/f/B/d/)!ped-up!!>)!"_""_musescore can't split stem"!ped!!>(![I:staff +1] (6:4:6([=B,^B,]/C/^E/B/^B/c/)!ped-up!!>)! | %85
"_"!ped!!<(! (6:4:6(A,/^B,/C/D/F/G/)!ped-up!"_"!ped! (6:4:6(A/d/^B/!<)!c/!>(!e/^d/)!ped-up!"_"!ped! (6:4:6(=d/B/c/!>)!!<(!^E/c/F/)!ped-up!!<)! | %86
[K:bass]"_"!ped!!<(! (6:4:6(B,,,/B,,/F,/A,/D/F/)!ped-up!"_"!ped! (6:4:6(B,,/F,/D/!<)![K:treble]!>(!F/A/d/)!ped-up!!>)!"_"!ped!!<(! (6:4:6(E,/^B,/E/G/^B/e/)!ped-up!!<)! | %87
[K:bass]"_"!ped!!<(! (6:4:6(A,,/E,/A,/C/E/A/)!ped-up!!<)![K:treble]"_""_add pedal"!ped!!>(! (6:4:6(c/A/E/[K:bass]C/A,/E,/)!ped-up!!>)!"_"!<(! (6:4:6(^A,,/^E,/F,/=E/^E/F/)!<)! | %88
"_"!ped!!<(! (6:4:6(B,,/^E,/F,/B,/^E/F/)!ped-up!"_"!ped! (6:4:6(E,/F,/B,/!<)![K:treble]!>(!^E/F/B/)!ped-up!!>)!"_"!ped!!<(! (6:4:6(C/D/E/F/B/d/)!ped-up!!<)! | %89
[K:bass]"_"!ped!!<(! (6:4:6(^B,,,/G,,/A,,/^B,,/F,/A,/)!ped-up!!<)!"_"!ped!!>(! (6:4:6(^B,/G,/A,/F,/A,/B,,/)!ped-up!"_"!ped! (6:4:6(E,/^D,/=D,/=C,/A,,/^B,,,/)!>)!!ped-up! | %90
"_"!ped! z x2!ped-up!!ped!!mf!"^bien marqué"!<(! (G,,/A,,/!ped-up!"_"!ped! B,,)!<)!!<(!(C,/D,/!ped-up!!<)! | %91
"_"!ped!!>(! =E,)(D,/C,/!ped-up!!>)!"_""^copy hairpins\n from bar 94"!ped!!<(! B,,/C,/D,/B,,/!ped-up!!<)!"_""^correct \nduration"!>(!!ped! .C,/)z/(B,,/A,,/!>)!!ped-up! | %92
"_"!ped! G,,) x!ped-up!"_"!ped! x!mf!!<(! (G,,/A,,/!ped-up!"_"!ped! B,,)!<)!!<(!(C,/D,/!ped-up!!<)! | %93
"_"!>(!!ped! =E,)(D,/C,/!>)!!ped-up!"_"!<(!!ped! B,,/C,/D,/B,,/!<)!!ped-up!"_"!>(!!ped! .C,/)z/B,,/A,,/!>)!!ped-up! | %94
"_"!ped! G,, x!ped-up!!ped! x"_"!mp!!<(! (D,/=E,/!ped-up!!<)!!ped!!>(! F,)(E,/D,/)!ped-up!!>)! | %95
"_"!p!!ped! z x2!ped-up!"_"!mp!!<(!!ped! (D,/=E,/ F,)!<)!"^add slur"!>(!(E,/D,/)!ped-up!!>)! | %96
"_"!ped! z x2!ped-up!"_"!mp!!<(!!ped! (=E,/F,/ =G,)!<)!!>(!(F,/E,/)!ped-up!!>)! | %97
"_"!p!!>(!!ped! F,(^D,/"_"F,/!>)!!ped-up!"_senza"!p!!>(! =D,)(E,/=C,/!>)!!p!!>(! ^G,,)(=A,,/^B,,/)!>)! | %98
"_"!ped! z x!ped-up!"_"!ped! !>!!fermata![B,,A,]4!ped-up! | %99
"_""^add tenuto"!ped! z x!ped-up!"_"!ped! !>!!fermata![=C,=C]4!ped-up! | %100
"_"!ped! x6[K:treble]!ped-up!!ped!!ped-up! |!ped! x6!ped-up! | %102
"_"!ped! !arpeggio!!tenuto![CGc^e]/!ped-up! z/"_senzae giocoso." !>![Gg]-[Gg]/ z/ .[Gg]/ z/ .[cg].[Gg] | %103
 .[^dg]/ z/ !>![Gg]-[Gg]/ z/ .[Gg]/ z/ .[dg].[Gg] | %104
 .[^cg]/ z/ !>![Gg]-[Gg]/ z/"_add \nstaccato" .[Gg]/ z/ .[cg].[Gg] | %105
 .[^dg]/ z/ !>![Gg]- [Gg]/ z/ .[Gg]/ z/ .[dg].[Gg] | %106
 .[^cg]/ z/"_"!ped! x3!ff! [f=c'=d']/!ped-up! z/ (!>!f/^d/) | %107
"_" .[^c^e]/ z/"_"!<(!!ped! (3([=C=DF]/[I:staff -1]=E/A/)[I:staff +1] (3([F=c=d]/[I:staff -1]A/"^add prec.\nnatural"=e/)[I:staff +1] (3([cdf]/[I:staff -1]e/a/)[I:staff +1] [f=c'=d']/!<)!!ped-up! z/"_" (!>!f/^d/) | %108
"_" .[c^e]/ z/"_" (!>!f/^d/) .[ce]/ z/"_" (!>!f/d/) .[ce]/ z/"_" (!>!f/d/) | %109
"_" .[c^e]/ z/"_""^add accent" (!>!F/^D/) .[C^E]/ z/!ped! (!>!^d/A/) [G^c]/!ped-up! z/ .=B/ z/ | %110
[K:bass]"_"!ped! [F,,C,^A,]4!ped-up!"_"!ped! .[C,A,]2!ped-up! | %111
"_"!ped! [G,,^E,]2[K:treble]!ped-up!"_"!ped! G,/ z/ z!ped-up!"_"!ped! C/ z/ z!ped-up! | %112
[K:bass]"_"!ped! [F,,C,^A,]4!ped-up!"_"!ped! C,,2!ped-up! | %113
"_"!ped! [G,,C,]2!ped-up![K:treble]"_"!ped! [G,C]/ z/ z!ped-up!"_"!ped! C/ z/!ped-up!"_"!ped! z!ped-up! | %114
[K:bass]"_"!f!!ped!!<(! (!>!C4[K:treble]!ped-up![K:bass]"_"!ped! !>!^^D2!<)!!ped-up! | %115
"_"!ped!!>(! ^E>^^D .E/)!>)! z/[K:treble]"_"!ped! !>!^e2!ped! [=e^^g]!ped-up! | %116
[K:bass]"_"!ped!!<(! (!>!C4[K:treble]!ped-up![K:bass]"_"!ped! !>!^^D2!<)!!ped-up! | %117
"_"!ped! ^E>^^D .E/) z/!ped-up![K:treble]"_" !>!^e2"_"!ped! !>!^^f/^g/!ped-up! | %118
[K:bass]"_"!ped! (6:4:6(A,,/^F,/A,/C/F/C/)"_" (6:4:4(A/4!ped-up! z/4[K:treble]!f! x2 x/) x!mf!"_"!ped! (3(^^f/g/b/)!ped-up! | %119
[K:bass]"_"!ped! (6:4:6(A,,/^F,/A,/C/F/C/)!ped-up!"_" (6:4:4(A/4 z/4[K:treble] x2 x/) x!mf!"_" (3(e/^e/b/) | %120
[K:bass]!ff!"_"!ped! (6:4:6D,,/!<(!A,,/!pp!!pp!!f!D,/F,/A,/F,/[K:treble] (6:4:6D/A,/F/A/F/A/ .f/ z/ .a/ z/!ped-up!!<)! | %121
[K:bass]"_"!mf!!ped! (6:4:6(^B,,,/!p!!<(!A,,/D,/E,/F,/A,/)[K:treble] (6:4:6(D/A,/^B,/^C/D/F/)!<)!!mp! .A/[K:bass] z/[K:treble] (!>!^E/!ped!F/)!ped-up! | %122
[K:bass]"_"!mf!!<(!!ped! z!p!!<(! (F,/G,/"_"!ped-up!!ped! !>!A,/)!<)! z/!p!!<(! (^B,/C/"_"!ped-up!!ped! !>!E/)!<)! z/!ped-up!!mp!!>(! (D/C/!<)!!>)! | %123
"_"!ped!!<(! =B,/C/!<)!!>(!D/B,/!>)!!mp!"_" !>!C/) z/"_senza "!p!!<(! (^B,/C/!<)!!mp! !>!E)!p!!<(!(D/C/!ped-up!!<)! | %124
"_"!mp!!ped! !>!F)!>(!(^E/=E/ ^D/!ped-up!!>)!!p!!<(!=B,/^B,/C/!<)!!mp!!>(! !>!E)(=D/C/ | %125
"_"!ped! B,/C/B,/^A,/ B,/)!>)! z/!ped-up!!pp!!<(!!ped! (^F,/=G,/!<)!"_"!p!!>(! B,)!ped-up!!ped!(=E,/^E,/)!ped-up!!>)! | %126
"_senza "[I:staff -1] .F,/.G,/.F,/.=E,/ .F,/[I:staff +1] z/[I:staff -1] .[F,A,]/[I:staff +1] z/[I:staff -1] .B,,/"_rit."[I:staff +1] z/[I:staff -1] .[E,G,]/[I:staff +1] z/ | %127
!<(![I:staff -1] .F,/.G,/!<)!!>(!.F,/.E,/!>)! .F,/[I:staff +1] z/[I:staff -1] .[F,A,]/[I:staff +1] z/[I:staff -1] .B,,/[I:staff +1] z/[I:staff -1] .[E,^G,]/[I:staff +1] z/ | %128
!<(![I:staff -1] .F,/.G,/!<)!!>(!.F,/.E,/!>)! .F,/[I:staff +1] z/[I:staff -1] .[F,A,]/[I:staff +1] z/[I:staff -1] .B,,/[I:staff +1] z/[I:staff -1] .[E,^G,]/[I:staff +1] z/ | %129
 .[F,,C,]/ z/ .[C,,C,]/ z/ .[F,,C,]/ z/ .[C,,C,]/ z/ .[F,,C,]/ z/ .[C,,C,]/ z/ | %130
[K:treble] .[Fc]/ z/ !>![Cc]-[Cc]/ z/"_add \nstaccato" .[Cc]/ z/ .[^Fc].[Cc] | %131
 c/ z/ !>![Cc]-[Cc]/ z/ .[Cc]/ z/ .[Gc].[Cc] | .[Fc]/ z/ !>![Cc]-[Cc]/ z/ .[Cc]/ z/ .[^Fc].[Cc] | %133
 c/ z/ [Cc]- [Cc]/ z/ .[Cc]/ z/ [Gc][Cc] | [Fc]/!p! z/!>(! x3!>)! z .[CB]/ z/ | %135
 F/ z/!>(! x3!>)! z .[CB]/ z/ | .F/ z/!>(! x4!>)! x | z x z x z z | %138
"_correct\n  rest" z2!ped-up! z[K:bass] =G,/A,/"_"!ped! B,C/D/ | %139
"_"!ped! !>![B,,=G,DB] .D/.C/"_"!ped-up!!ped! .B,/.C/.D/!ped-up!.B,/ C/ z/"_add \nstaccato"!ped! .[C,,C,]!ped-up! | %140
!ped! .[F,,,F,,]/ z/ z z2 z2!ped-up! |] %141
V:4
 x2 | x6 | x6 | x6 | x6 | x6 | x6 | x6 | x6 | x3[K:bass] x3 | x4 C,/ z/ z | F,,4- F,, z | %12
 F,,4- F,, z | F,,4- F,, z | x5[K:treble] x |[K:bass] (^E,,4 F,,2 | G,,4 A,,2 | =B,,4 A,,2 | %18
 G,,4 F,,2) | (^E,,4 F,,2 | G,,4 A,,2 | =B,,4 A,,2 | G,,4 F,,2 | ^E,,/) z/[K:treble] x5 | %24
 x3[K:bass] x3 | x5[K:treble] x |[K:bass] !tenuto![F,,C,]4 !tenuto![F,,C,]2 | %27
 !tenuto![F,,C,]4 !tenuto![F,,C,]2 | !tenuto![F,,C,]4 !tenuto![F,,C,]2 | F,,2 =E,,2 .D,,/ z/ z | %30
 C,,2- C,, z G,,, z | C,,2- C,, z G,,, z | C,,2- C,, z G,,, z | C,,2- C,, z G,,, z | %34
 C,,2- C,, z G,,, z | C,,2- C,, z G,,, z | C,,2- C,, z G,,, z | C,,2- C,, z G,,, z | %38
 .C,,/ z/[K:treble] x5 | x6 | x6 | x6 | .C x5 | x6 | x5 (G/^d/) | x5 (G/^d/) | %46
 x (G/^d/) x (G/d/) x (G/d/) | x (G,/^D/) x ([C=A] C) z |[K:bass] x6 | x6 || %50
[K:treble] A,2- A, z E, z | B,2- B, z E, z | A,2- A, z E, z | B,2- B, z E, z | A,2- A, z !>!E, z | %55
 B,2- B, z !>!E, z | A,2- A, z !>!E, z | B,2- B, z E, x |[K:bass] x4[K:treble] x2 | %59
[K:bass] x3[K:treble] x[K:bass] x[K:treble] x |[K:bass] x5[K:treble] x | %61
[K:bass] x[K:treble] x3[K:bass] x[K:treble] x |[K:bass] x2[K:treble] x2[K:bass] x[K:treble] x | %63
[K:bass] x[K:treble] x3[K:bass] x[K:treble] x |[K:bass] x4[K:treble] x2 |[K:bass] x2[K:treble] x4 | %66
[K:bass] z"_pp" .=C,/ z/ .=C,,/ z/"^add staccato" .C,/ z/ z .C,/ z/ | %67
 z"_ppp" .=C,,/ z/ z2"_" .C,,/ z/ z | z"_pp" .=C,/ z/ .=C,,/ z/ .C,/ z/ z .C,/ z/ | %69
 z =C,,/ z/ z2"_" C,,/ z/ z | =F,, z =C, z =C,, z | %71
 =G,,/ z/ z =C,,[K:treble] ._B/ z/ ._b/ z/[K:bass] x | =F,, z =C, z =F,->F, | %73
 x8/3[K:treble] x10/3 | z2 ._A,/ z/ ._A/ z/ z .A/ z/ | x2 z2 _A, z | _D4 _A, z | x2 z2 _A, z | %78
 _D4 _A, z | z2 z2 _A, z | x2 ^^f/ z/ z z2 | x6 | x6 | x6 | x6 | x2 z F- F/ z/ z | %86
[K:bass] x3[K:treble] x3 |[K:bass] x2[K:treble] x[K:bass] x3 | x3[K:treble] x3 |[K:bass] x6 | %90
 !tenuto!C,,2-"_" C,, z z2 | B,,,2- B,,, z z2 | [C,,G,,]2- [C,,G,,] z z2 | B,,,2- B,,, z z2 | %94
 [C,,G,,]2- [C,,G,,]/ x/ =G,,- G,,2 | !tenuto!C,,2- C,,/ z/ G,,- G,,2 | %96
 !tenuto!C,,2- C,,/ z/ =C,- C,2 | =G,,2 ^A,,>=C, ^G,,/ z/ z | !tenuto!^C,,3/2 z/ x4 | %99
 !tenuto!C,,3/2 z/ x4 | C,,2- C,,/ z/[K:treble] z z2 | x6 | x6 | x6 | x6 | x6 | x5 (G/^d/) | %107
 x5 (G/^d/) | x (G/^d/) x (G/d/) x (G/d/) | x (G,/^D/) x C- C/ z/ .^E/ z/ | %110
[K:bass] z"_ben marcato""_move mf"!mf!!<(! (^D/^E/!<)! .F/) z/!>(! (E/D/ .E/) z/ (D/C/ | %111
 B,/) z/[K:treble] ^D/C/!>)! [^EB]/ z/ !>!^d/ z/ .=A/ z/ [ce]/ z/ | %112
[K:bass] z!<(! (^D/^E/ .F/)!<)! z/!>(! (E/D/ C/) z/ (B,/^A,/ | %113
 B,/) z/ ^D/C/!>)![K:treble] .B/ z/ !>!=a/ z/ =A/ z/ .[^e^^g]/ z/ | %114
[K:bass] [F,,C,]4[K:treble][K:bass] ^^F,,/ x/ .C,,/ z/ | [G,,C,]4[K:treble]"_" C x | %116
[K:bass] [F,,C,]4[K:treble][K:bass] ^^F,,/ z/ .C,,/ z/ | [G,,C,]4[K:treble] x2 | %118
[K:bass] A,,-A,,/ z/ x/3[K:treble] x8/3 c |[K:bass] A,,-A,,/ z/ x/3[K:treble] x8/3 c | %120
[K:bass] !>!D,,6[K:treble] |[K:bass] ^B,,,4-[K:treble] (3x/[K:bass]"_" B,,,/[K:treble] z/ ^B, | %122
[K:bass] ^C,,6 | C,2- C,/ z/ z z2 | C,2- C,/ z/ z z2 | C,2- C,/ z/ z C,2 | %126
 !arpeggio!!>![D,,A,,D,]/ z/ .A,/ z/ .D/ z/ .[B,,,B,,]/ z/ .[E,,E,]/ z/ .[C,,C,]/ z/ | %127
 [F,,C,]/ z/ !>![D,=G,]/ z/ .[F,,C,]/ z/ .[B,,,B,,]/ z/ .[E,,E,]/ z/ .[C,,C,]/ z/ | %128
 .[F,,C,]/ z/ !>![D,=G,]/ z/ .[F,,C,]/ z/ .[B,,,B,,]/ z/ .[E,,E,]/ z/ .[C,,C,]/ z/ | x6 | %130
[K:treble] x6 | ^G/ x11/2 | x6 | G/ x11/2 | x6 | x6 | x6 | x6 | x3[K:bass] x3 | x4 x x/ x/ | x6 |] %141
V:5
 x2 | x6 | x6 | x6 | x6 | x6 | x6 | x6 | x6 | x6 |[K:bass] x3/2[K:treble] x9/2 |[K:bass] x6 | x6 | %13
 x6 | x5[K:treble] x | x6 | x6 | x6 | x6 | x6 | x6 | x6 | x6 | x6 | x6 | x6 | x6 | x6 | x6 | x6 | %30
[K:bass] x6 | x3[K:treble] x3 | x6 | x5/2[K:bass] x7/2 | x6 | x3[K:treble] x3 | x6 | x6 | x6 | x6 | %40
 x6 | x6 | x6 | x6 | x6 | x6 | x6 | x3 (^B [c^e]) x |[K:bass] x6 | x6 ||[K:treble] x6 | x6 | x6 | %53
 x6 | x6 | x6 | x6 | x6 | x6 | x6 | x6 | x6 | x6 | x6 | x6 | x6 | x6 | x6 | x6 | x6 | x6 | x6 | %72
 x6 | x6 | x6 | x6 | x6 | x6 | x6 | x6 | x6 | x6 | x6 | x6 | x6 | x6 | x6 | x6 | x6 | x6 | %90
[K:bass] x6 | x6 | x6 | x6 | x6 | x6 | x6 | x6 | x6 | x6 | x3[K:treble] x3 | x6 | x6 | x6 | x6 | %105
 x6 | x6 | x6 | x6 | x6 | x6 | x3 c2 x | x6 | x3 ^d2 x | x6 | x6 | x6 | x6 | x6 | x6 | x6 | x6 | %122
 x6 | x6 | x6 | x6 |[K:bass] x6 | x6 | x6 | x6 |[K:treble] x6 | x6 | x6 | x6 | x6 | x6 | x6 | x6 | %138
 x6 | x5!8va(! x | x/!8va)! x11/2 |] %141
V:6
 x2 | x6 | x6 | x6 | x6 | x6 | x6 | x6 | x6 | x3[K:bass] x3 | x6 | x6 | x6 | x6 | x5[K:treble] x | %15
[K:bass] x6 | x6 | x6 | x6 | x6 | x6 | x6 | x6 | x[K:treble] x5 | x3[K:bass] x3 | x5[K:treble] x | %26
[K:bass] x6 | x6 | x6 | x6 | x6 | x6 | x6 | x6 | x6 | x6 | x6 | x6 | x[K:treble] x5 | x6 | x6 | %41
 x6 | x6 | x6 | x6 | x6 | x6 | x6 |[K:bass] x6 | x6 ||[K:treble] x6 | x6 | x6 | x6 | x6 | x6 | x6 | %57
 x6 |[K:bass] x4[K:treble] x2 |[K:bass] x3[K:treble] x[K:bass] x[K:treble] x | %60
[K:bass] x5[K:treble] x |[K:bass] x[K:treble] x3[K:bass] x[K:treble] x | %62
[K:bass] x2[K:treble] x2[K:bass] x[K:treble] x |[K:bass] x[K:treble] x3[K:bass] x[K:treble] x | %64
[K:bass] x4[K:treble] x2 |[K:bass] x2[K:treble] x4 |[K:bass] [=F,,=C,]4 x2 | [=G,,=C,]4 z2 | %68
 [=F,,=C,]4 z2 | [=G,,=C,]4 z2 | x6 | x3[K:treble] x2[K:bass] x | x6 | _E,,4[K:treble] _A,2 | %74
 [_D_A]4 x2 | x6 | x6 | x6 | x6 | x6 | x6 | x6 | x6 | x6 | x6 | x6 |[K:bass] x3[K:treble] x3 | %87
[K:bass] x2[K:treble] x[K:bass] x3 | x3[K:treble] x3 |[K:bass] x6 | x6 | x6 | x6 | x6 | x6 | x6 | %96
 x6 | x6 | x6 | x6 | x3[K:treble] x3 | x6 | x6 | x6 | x6 | x6 | x6 | x6 | x6 | x6 |[K:bass] x6 | %111
 x[K:treble] x5 |[K:bass] x6 | x2[K:treble] x4 | %114
[K:bass] z .C,,/ z/[K:treble] .^a/ z/ .f/ z/[K:bass] ^^F,,/ z/ x | z .C,,/ z/ z2[K:treble] C z | %116
[K:bass] z .C,,/ z/[K:treble] .^a/ z/ .f/ z/[K:bass] ^^F,,/ x3/2 | z C,,/ z/ z2[K:treble] C c | %118
[K:bass] x7/3[K:treble] x11/3 |[K:bass] x7/3[K:treble] x11/3 |[K:bass] x2[K:treble] x4 | %121
[K:bass] x2[K:treble] x7/3[K:bass] x/3[K:treble] x4/3 |[K:bass] x6 | x6 | x6 | x6 | x6 | x6 | x6 | %129
 x6 |[K:treble] x6 | x6 | x6 | x6 | x6 | x6 | x6 | x6 | x3[K:bass] x3 | x6 | x6 |] %141

